SharedCollection/src/main/webapp/images/templateimg/imgFont/twitter.svg

<?xml version="1.0" encoding="UTF-8"?>
<!-- Generated by Pixelmator Pro 3.0.1 -->
<svg width="16" height="16" viewBox="0 0 16 16" xmlns="http://www.w3.org/2000/svg" xmlns:xlink="http://www.w3.org/1999/xlink">
    <path id="Percorso" fill="#ffffff" stroke="none" d="M 5.026 15 C 11.064 15 14.367 9.997 14.367 5.666 C 14.367 5.526 14.367 5.384 14.361 5.243999 C 15.004059 4.778486 15.55906 4.202152 16 3.542 C 15.399314 3.80685 14.762761 3.981405 14.111 4.059999 C 14.797533 3.649637 15.311724 3.003968 15.558 2.243 C 14.912988 2.625124 14.207014 2.893373 13.471 3.036 C 12.453671 1.952555 10.835776 1.68682 9.525338 2.387938 C 8.2149 3.089054 7.538188 4.58246 7.875 6.030001 C 5.235318 5.89764 2.775795 4.65134 1.108 2.601 C 0.239139 4.101643 0.684584 6.019068 2.126 6.983 C 1.60554 6.965317 1.096521 6.82556 0.64 6.575 L 0.64 6.62 C 0.64185 8.181581 1.741813 9.526444 3.272 9.838 C 2.990263 9.915614 2.699229 9.954307 2.407 9.953 C 2.200984 9.953625 1.995381 9.934538 1.793 9.896 C 2.223105 11.232849 3.455886 12.148089 4.86 12.173 C 3.696555 13.0868 2.259401 13.582406 0.78 13.58 C 0.519321 13.5811 0.258823 13.566072 0 13.535 C 1.501515 14.492264 3.245298 15.000549 5.026 15 Z"/>
</svg>

<svg xmlns="http://www.w3.org/2000/svg" width="16" height="16" fill="currentColor" class="bi bi-twitter" viewBox="0 0 16 16">
  <path d="M5.026 15c6.038 0 9.341-5.003 9.341-9.334 0-.14 0-.282-.006-.422A6.685 6.685 0 0 0 16 3.542a6.658 6.658 0 0 1-1.889.518 3.301 3.301 0 0 0 1.447-1.817 6.533 6.533 0 0 1-2.087.793A3.286 3.286 0 0 0 7.875 6.03a9.325 9.325 0 0 1-6.767-3.429 3.289 3.289 0 0 0 1.018 4.382A3.323 3.323 0 0 1 .64 6.575v.045a3.288 3.288 0 0 0 2.632 3.218 3.203 3.203 0 0 1-.865.115 3.23 3.23 0 0 1-.614-.057 3.283 3.283 0 0 0 3.067 2.277A6.588 6.588 0 0 1 .78 13.58a6.32 6.32 0 0 1-.78-.045A9.344 9.344 0 0 0 5.026 15z"/>
</svg>
